X: 3365
M: C
L: 1/8
K: Bb
(fe) |\
dbfd cgec | BfdB AecA |\
dbfd cgec | BfdB AecA |\
|: b2 |\
afcA BdcB | AFAc fagf |\
=eceg bgeg | f=efg a2b2 |\
afcA BdcB | AFAc fagf |\
=eceg bgeg | f2a2 "_D.C."f2 :|



